images/location.svg

<svg width="13" height="15" viewBox="0 0 13 15" fill="none" xmlns="http://www.w3.org/2000/svg">
<path d="M6.28418 -0.000976562C7.9509 -0.000975931 9.54899 0.661295 10.7275 1.83984C11.9061 3.01839 12.5684 4.61649 12.5684 6.2832C12.5683 7.86945 11.3604 10.3394 8.97852 13.625C8.67198 14.0526 8.26743 14.4004 7.79883 14.6396C7.33005 14.8789 6.81046 15.0027 6.28418 15C5.75789 15.0027 5.23831 14.8789 4.76953 14.6396C4.30093 14.4004 3.89638 14.0526 3.58984 13.625C1.20799 10.3394 2.44544e-05 7.86946 0 6.2832C0 4.61649 0.662286 3.01839 1.84082 1.83984C3.01937 0.661295 4.61746 -0.000976562 6.28418 -0.000976562ZM6.28418 3.75C5.78988 3.75 5.30655 3.89636 4.89551 4.1709C4.48448 4.44554 4.16385 4.83629 3.97461 5.29297C3.78545 5.74965 3.73569 6.25249 3.83203 6.7373C3.92849 7.22226 4.16697 7.66795 4.5166 8.01758C4.86623 8.36721 5.31192 8.60569 5.79688 8.70215C6.28169 8.79849 6.78453 8.74873 7.24121 8.55957C7.69789 8.37033 8.08864 8.0497 8.36328 7.63867C8.63782 7.22763 8.78418 6.7443 8.78418 6.25C8.78418 5.58696 8.5206 4.95126 8.05176 4.48242C7.58292 4.01358 6.94722 3.75 6.28418 3.75Z" fill="white"/>
</svg>

<?xml version="1.0" encoding="UTF-8"?>
<svg id="Layer_1" xmlns="http://www.w3.org/2000/svg" version="1.1" viewBox="0 0 13 15">
  <!-- Generator: Adobe Illustrator 30.1.0, SVG Export Plug-In . SVG Version: 2.1.1 Build 136)  -->
  <defs>
    <style>
      .st0 {
        fill: #4b8087;
      }
    </style>
  </defs>
  <path class="st0" d="M6.28,0c1.67,0,3.26.66,4.44,1.84,1.18,1.18,1.84,2.78,1.84,4.44,0,1.59-1.21,4.06-3.59,7.34-.31.43-.71.78-1.18,1.01-.47.24-.99.36-1.51.36-.53,0-1.05-.12-1.51-.36-.47-.24-.87-.59-1.18-1.01C1.21,10.34,0,7.87,0,6.28c0-1.67.66-3.26,1.84-4.44C3.02.66,4.62,0,6.28,0ZM6.28,3.75c-.49,0-.98.15-1.39.42-.41.27-.73.67-.92,1.12-.19.46-.24.96-.14,1.44.1.48.33.93.68,1.28.35.35.8.59,1.28.68.48.1.99.05,1.44-.14.46-.19.85-.51,1.12-.92.27-.41.42-.89.42-1.39,0-.66-.26-1.3-.73-1.77-.47-.47-1.1-.73-1.77-.73Z"/>
</svg>
